src/static/images/icons/icon-skype.svg

<svg width="65" height="57" viewBox="0 0 65 57" fill="none" xmlns="http://www.w3.org/2000/svg">
<g clip-path="url(#clip0)">
<path d="M48.366 56H16.566L0.666016 28.3L16.566 0.599976H48.366L64.266 28.3L48.366 56Z" fill="white"/>
<path d="M16.766 1L1.16602 28.2L16.766 55.4H48.066L63.666 28.2L48.066 1H16.766ZM16.166 0H48.566L64.766 28.2L48.566 56.4H16.166L-0.0339966 28.2L16.166 0Z" fill="#DFE9EB"/>
<path d="M40.7 32.9C40.7 35.3 38.7 37.3 36.3 37.3C35.3 37.3 34.4 37 33.6 36.4C33 36.5 32.5 36.6 31.9 36.6C27.5 36.6 23.9 33 23.9 28.6C23.9 28 24 27.4 24.1 26.9C23.5 26.2 23.2 25.2 23.2 24.2C23.2 21.8 25.2 19.8 27.6 19.8C28.6 19.8 29.5 20.1 30.3 20.7C30.9 20.6 31.4 20.5 32 20.5C36.4 20.5 40 24.1 40 28.5C40 29.1 39.9 29.7 39.8 30.2C40.3 30.9 40.7 31.9 40.7 32.9ZM36.5 30.4C36.5 28.4 34.6 27.7 33 27.4C31.1 27 30.3 26.9 30.3 26.1C30.3 25.5 30.9 25.2 31.9 25.2C33.7 25.2 33.7 26.5 34.8 26.5C35.5 26.5 36 25.9 36 25.3C36 24 33.8 23.1 31.7 23.1C29.7 23.1 27.4 24 27.4 26.3C27.4 28.8 29.6 29.1 32 29.7C33 29.9 33.6 30.1 33.6 30.8C33.6 31.4 33 31.8 31.9 31.8C29.8 31.8 29.7 30 28.5 30C27.7 30 27.3 30.6 27.3 31.2C27.3 32.6 29.4 33.7 32 33.7C34.3 33.8 36.5 32.7 36.5 30.4Z" fill="#962932"/>
</g>
<defs>
<clipPath id="clip0">
<rect width="64.8" height="56.5" fill="white"/>
</clipPath>
</defs>
</svg>

<?xml version="1.0" encoding="utf-8"?>
<!-- Generator: Adobe Illustrator 24.0.3, SVG Export Plug-In . SVG Version: 6.00 Build 0)  -->
<svg version="1.1" id="Слой_1" xmlns="http://www.w3.org/2000/svg" xmlns:xlink="http://www.w3.org/1999/xlink" x="0px" y="0px"
	 viewBox="0 0 64.8 56.5" style="enable-background:new 0 0 64.8 56.5;" xml:space="preserve">
<style type="text/css">
	.st0{fill:#FFFFFF;}
	.st1{fill:#DFE9EB;}
	.st2{enable-background:new    ;}
	.st3{fill:#962932;}
</style>
<g id="Polygon_20" transform="translate(341.966 1620)">
	<path class="st0" d="M-293.6-1564h-31.8l-15.9-27.7l15.9-27.7h31.8l15.9,27.7L-293.6-1564z"/>
	<path class="st1" d="M-325.2-1619l-15.6,27.2l15.6,27.2h31.3l15.6-27.2l-15.6-27.2H-325.2 M-325.8-1620h32.4l16.2,28.2l-16.2,28.2
		h-32.4l-16.2-28.2L-325.8-1620z"/>
</g>
<g class="st2">
	<path class="st3" d="M40.7,32.9c0,2.4-2,4.4-4.4,4.4c-1,0-1.9-0.3-2.7-0.9c-0.6,0.1-1.1,0.2-1.7,0.2c-4.4,0-8-3.6-8-8
		c0-0.6,0.1-1.2,0.2-1.7c-0.6-0.7-0.9-1.7-0.9-2.7c0-2.4,2-4.4,4.4-4.4c1,0,1.9,0.3,2.7,0.9c0.6-0.1,1.1-0.2,1.7-0.2
		c4.4,0,8,3.6,8,8c0,0.6-0.1,1.2-0.2,1.7C40.3,30.9,40.7,31.9,40.7,32.9z M36.5,30.4c0-2-1.9-2.7-3.5-3c-1.9-0.4-2.7-0.5-2.7-1.3
		c0-0.6,0.6-0.9,1.6-0.9c1.8,0,1.8,1.3,2.9,1.3c0.7,0,1.2-0.6,1.2-1.2c0-1.3-2.2-2.2-4.3-2.2c-2,0-4.3,0.9-4.3,3.2
		c0,2.5,2.2,2.8,4.6,3.4c1,0.2,1.6,0.4,1.6,1.1c0,0.6-0.6,1-1.7,1c-2.1,0-2.2-1.8-3.4-1.8c-0.8,0-1.2,0.6-1.2,1.2
		c0,1.4,2.1,2.5,4.7,2.5C34.3,33.8,36.5,32.7,36.5,30.4z"/>
</g>
</svg>
